X: 7049
T: Chloe's Party
R: reel
M: 4/4
K: Gmajor
DGBG dGBG|dGBG AEE2|DGBG dGBG|BdAc BGG2:|
g2dg egdg|egdg egdf|g2dg egdB|cAdc BGG2:|

